X: 326
T:Gordon Crombie Munro
N: page 110
N: heptatonic
R: reel
M:4/4
L:1/8
C:James Scott Skinner
K:G
"G"g2 dc BGGB|"C"EAAB cdef|"G"g2 dc BGGB|[1 "C"EG "D"FA "G"G2 ((3def):|[2 "C"EG "D"FA "G"G4|:
"G"BBdB "C"cdec|"D"ABcA "G"BcdB|GGBG "C"EGce|[1 "G"dB "D"cA "G"G2 dc:|[2 "G"dg "D"fa "G"g4||
%%newpage
